icons/sync-ignored.svg

<svg xmlns="http://www.w3.org/2000/svg" viewBox="0 0 24 24"><path fill="#e57373" d="M20 4h-6v6l2.24-2.24A6 6 0 0 1 18 12c0 1-.25 1.94-.68 2.77l1.46 1.46a7.925 7.925 0 0 0-1.14-9.87zM2.86 5.41l2.36 2.36a7.925 7.925 0 0 0 1.14 9.87L4 20h6v-6l-2.24 2.24A6 6 0 0 1 6 12c0-1 .25-1.94.68-2.77l8.08 8.08c-.26.13-.5.25-.76.34v2.09c.79-.21 1.54-.54 2.22-.96l2.36 2.36 1.27-1.27L4.14 4.14zm7.14.94V4.26c-.8.21-1.55.54-2.23.96l1.46 1.46c.27-.12.5-.24.77-.33"/></svg>

<!--
  - The MIT License (MIT)
  -
  - Copyright (c) 2015-2022 Elior "Mallowigi" Boukhobza
  -
  - Permission is hereby granted, free of charge, to any person obtaining a copy
  - of this software and associated documentation files (the "Software"), to deal
  - in the Software without restriction, including without limitation the rights
  - to use, copy, modify, merge, publish, distribute, sublicense, and/or sell
  - copies of the Software, and to permit persons to whom the Software is
  - furnished to do so, subject to the following conditions:
  -
  - The above copyright notice and this permission notice shall be included in all
  - copies or substantial portions of the Software.
  -
  - THE SOFTWARE IS PROVIDED "AS IS", WITHOUT WARRANTY OF ANY KIND, EXPRESS OR
  - IMPLIED, INCLUDING BUT NOT LIMITED TO THE WARRANTIES OF MERCHANTABILITY,
  - FITNESS FOR A PARTICULAR PURPOSE AND NONINFRINGEMENT. IN NO EVENT SHALL THE
  - AUTHORS OR COPYRIGHT HOLDERS BE LIABLE FOR ANY CLAIM, DAMAGES OR OTHER
  - LIABILITY, WHETHER IN AN ACTION OF CONTRACT, TORT OR OTHERWISE, ARISING FROM,
  - OUT OF OR IN CONNECTION WITH THE SOFTWARE OR THE USE OR OTHER DEALINGS IN THE
  - SOFTWARE.
  -
  -
  -->


<svg xmlns="http://www.w3.org/2000/svg" version="1.1" width="12px" height="12px" viewBox="0 0 24 24">
  <path fill="#E57373"
        d="M20,4H14V10L16.24,7.76C17.32,8.85 18,10.34 18,12C18,13 17.75,13.94 17.32,14.77L18.78,16.23C19.55,15 20,13.56 20,12C20,9.79 19.09,7.8 17.64,6.36L20,4M2.86,5.41L5.22,7.77C4.45,9 4,10.44 4,12C4,14.21 4.91,16.2 6.36,17.64L4,20H10V14L7.76,16.24C6.68,15.15 6,13.66 6,12C6,11 6.25,10.06 6.68,9.23L14.76,17.31C14.5,17.44 14.26,17.56 14,17.65V19.74C14.79,19.53 15.54,19.2 16.22,18.78L18.58,21.14L19.85,19.87L4.14,4.14L2.86,5.41M10,6.35V4.26C9.2,4.47 8.45,4.8 7.77,5.22L9.23,6.68C9.5,6.56 9.73,6.44 10,6.35Z" />
</svg>
